usr/share/icons/biglinux-icons-material/scalable/apps/gdevilspie.svg

<svg width="24" height="24" viewBox="0 0 24 24" fill="none" xmlns="http://www.w3.org/2000/svg">
<path fill-rule="evenodd" clip-rule="evenodd" d="M9.59604 1.11359C9.71588 1.11486 9.83043 1.0996 9.93969 1.06779C11.3755 0.973736 12.8111 0.977551 14.2467 1.07924C15.5484 1.18066 16.8085 1.46308 18.0269 1.9265C20.0525 2.76044 21.4386 4.2069 22.185 6.26586C22.6119 7.50549 22.8639 8.78021 22.9411 10.09C23.0478 11.7347 23.0096 13.3758 22.8265 15.0133C22.6895 16.1642 22.3917 17.271 21.933 18.3336C21.0824 20.1761 19.704 21.447 17.7978 22.1463C16.2531 22.6682 14.6647 22.943 13.0325 22.9706C11.1966 23.0661 9.37913 22.9287 7.57997 22.5585C4.26839 21.8208 2.22559 19.8018 1.45158 16.5017C1.12311 15.0161 0.974199 13.5124 1.00483 11.9906C0.968176 10.3724 1.14 8.77709 1.52031 7.20471C2.33171 4.11908 4.2905 2.20701 7.39669 1.46852C8.12049 1.29157 8.8536 1.17326 9.59604 1.11359Z" fill="url(#paint0_radial_8_93)"/>
<path d="M18.9737 4.50121C20.5363 6.02515 20.5363 10.5933 17.4098 12.1173L14.2821 9.06939C17.4098 9.06939 18.9737 6.02394 18.9737 4.50121ZM5.02722 4.50121C3.46337 6.02515 3.46337 10.5921 6.59107 12.1161L9.71756 9.06818C6.59107 9.06818 5.02722 6.02273 5.02722 4.5V4.50121Z" fill="#F95050"/>
<path d="M11.9998 20.4929C15.7111 20.4929 18.7197 17.4843 18.7197 13.773C18.7197 10.0618 15.7111 7.0532 11.9998 7.0532C8.28857 7.0532 5.28 10.0618 5.28 13.773C5.28 17.4843 8.28857 20.4929 11.9998 20.4929Z" fill="#FFD059"/>
<path opacity="0.4" d="M12.001 12.5007C12.001 12.5007 11.4471 11.6589 11.2971 11.2755C11.146 10.8921 10.9827 10.5014 11.0613 10.2244C11.1411 9.94868 11.2693 9.80354 11.5318 9.69953C11.7942 9.5943 12.2091 9.5943 12.4703 9.69953C12.7316 9.80475 12.861 9.94868 12.9408 10.2244C13.0194 10.5014 12.8561 10.8921 12.705 11.2755C12.555 11.6589 12.001 12.5007 12.001 12.5007ZM12.001 15.0611C12.001 15.0611 11.4471 15.9029 11.2971 16.2863C11.146 16.6697 10.9827 17.0604 11.0613 17.3374C11.1411 17.6131 11.2693 17.7582 11.5318 17.8623C11.7942 17.9675 12.2091 17.9675 12.4703 17.8623C12.7316 17.757 12.861 17.6131 12.9408 17.3374C13.0194 17.0604 12.8561 16.6697 12.705 16.2863C12.555 15.9029 12.001 15.0611 12.001 15.0611ZM13.2807 13.7803C13.2807 13.7803 14.1225 13.2276 14.5059 13.0764C14.8905 12.9252 15.2799 12.7619 15.5569 12.8417C15.8339 12.9216 15.9778 13.0486 16.0818 13.311C16.187 13.5735 16.187 13.9883 16.0818 14.2508C15.9778 14.5132 15.8339 14.6402 15.5569 14.7201C15.2799 14.7999 14.8905 14.6354 14.5059 14.4854C14.1225 14.3342 13.2807 13.7815 13.2807 13.7815V13.7803ZM10.7202 13.7803C10.7202 13.7803 9.87842 13.2276 9.49502 13.0764C9.11041 12.9252 8.72096 12.7619 8.44399 12.8417C8.16702 12.9216 8.02309 13.0486 7.91907 13.311C7.81385 13.5735 7.81385 13.9883 7.91907 14.2508C8.02309 14.5132 8.16702 14.6402 8.44399 14.7201C8.72096 14.7999 9.11041 14.6354 9.49502 14.4854C9.87842 14.3342 10.7202 13.7815 10.7202 13.7815V13.7803ZM12.9057 14.6862C12.9057 14.6862 13.8927 14.8894 14.27 15.0551C14.6486 15.2196 15.0405 15.3792 15.1795 15.6308C15.3186 15.8836 15.3307 16.0747 15.2182 16.3347C15.0774 16.6243 14.8436 16.8585 14.5542 16.9999C14.2954 17.11 14.1031 17.0991 13.8515 16.96C13.6 16.8209 13.4391 16.4278 13.2746 16.0505C13.1101 15.6731 12.9057 14.6862 12.9057 14.6862ZM11.0952 12.8756C11.0952 12.8756 10.8908 11.8887 10.7263 11.5113C10.5618 11.1328 10.4009 10.7409 10.1493 10.6018C9.89777 10.4627 9.70547 10.4518 9.44664 10.5631C9.15701 10.704 8.92284 10.9377 8.78143 11.2271C8.67016 11.4859 8.68225 11.6782 8.82134 11.9298C8.96043 12.1826 9.35351 12.3422 9.73087 12.5067C10.1082 12.6712 11.0952 12.8756 11.0952 12.8756ZM11.0952 14.6862C11.0952 14.6862 10.1082 14.8894 9.73087 15.0551C9.3523 15.2196 8.96043 15.3792 8.82134 15.6308C8.68225 15.8836 8.67016 16.0747 8.78264 16.3347C8.89391 16.5947 9.1866 16.8874 9.44664 16.9999C9.70547 17.11 9.89777 17.0991 10.1493 16.96C10.4009 16.8209 10.5618 16.4278 10.7263 16.0505C10.8908 15.6731 11.0952 14.6862 11.0952 14.6862ZM12.9057 12.8756C12.9057 12.8756 13.1101 11.8887 13.2746 11.5113C13.4391 11.1328 13.6 10.7409 13.8515 10.6018C14.1031 10.4627 14.2954 10.4518 14.5542 10.5631C14.8143 10.6744 15.107 10.9671 15.2195 11.2271C15.3307 11.4859 15.3186 11.6782 15.1795 11.9298C15.0405 12.1826 14.6474 12.3422 14.27 12.5067C13.8927 12.6712 12.9057 12.8756 12.9057 12.8756Z" fill="black"/>
<defs>
<radialGradient id="paint0_radial_8_93" cx="0" cy="0" r="1" gradientUnits="userSpaceOnUse" gradientTransform="translate(12 1) rotate(90) scale(22)">
<stop stop-color="#FD8C01"/>
<stop offset="1" stop-color="#C35200"/>
</radialGradient>
</defs>
</svg>

<svg xmlns="http://www.w3.org/2000/svg" width="24" height="24" fill="none"><path fill="url(#a)" fill-rule="evenodd" d="M9.596 1.114c.12 0 .234-.014.344-.046a31.627 31.627 0 0 1 4.307.011c1.301.102 2.561.384 3.78.848 2.025.833 3.412 2.28 4.158 4.339.427 1.24.679 2.514.756 3.824a27.94 27.94 0 0 1-.114 4.923 11.876 11.876 0 0 1-.894 3.32c-.85 1.843-2.229 3.114-4.135 3.813a15.624 15.624 0 0 1-4.765.825 21.423 21.423 0 0 1-5.453-.413c-3.312-.737-5.354-2.756-6.128-6.056a19.047 19.047 0 0 1-.447-4.511 18.491 18.491 0 0 1 .515-4.786c.812-3.086 2.77-4.998 5.877-5.736a13.954 13.954 0 0 1 2.199-.355Z" clip-rule="evenodd"/><path fill="#F95050" d="M18.974 4.501c1.562 1.524 1.562 6.092-1.564 7.616L14.282 9.07c3.128 0 4.692-3.045 4.692-4.568Zm-13.947 0c-1.564 1.524-1.564 6.091 1.564 7.615l3.127-3.048c-3.127 0-4.69-3.045-4.69-4.568v.001Z"/><path fill="#FFD059" d="M12 20.493a6.72 6.72 0 1 0 0-13.44 6.72 6.72 0 0 0 0 13.44Z"/><path fill="#000" d="M12.001 12.5s-.554-.841-.704-1.225c-.151-.383-.314-.774-.236-1.05.08-.276.208-.421.47-.525.263-.106.678-.106.94 0 .26.105.39.249.47.524.078.277-.085.668-.236 1.051-.15.384-.704 1.226-.704 1.226Zm0 2.561s-.554.842-.704 1.225c-.151.384-.314.774-.236 1.051.08.276.208.421.47.525.263.106.678.106.94 0 .26-.105.39-.249.47-.525.078-.277-.085-.667-.236-1.05-.15-.384-.704-1.226-.704-1.226Zm1.28-1.28s.841-.553 1.225-.705c.384-.15.774-.314 1.05-.234.278.08.422.207.526.469.105.262.105.677 0 .94-.104.262-.248.39-.525.47-.277.079-.667-.086-1.051-.236-.383-.15-1.225-.704-1.225-.704Zm-2.56 0s-.843-.553-1.226-.705c-.385-.15-.774-.314-1.051-.234-.277.08-.42.207-.525.469a1.438 1.438 0 0 0 0 .94c.104.262.248.39.525.47.277.079.666-.086 1.051-.236.383-.15 1.225-.704 1.225-.704Zm2.185.905s.987.203 1.364.37c.379.164.77.323.91.575.139.253.15.444.038.704-.14.29-.374.523-.664.665-.259.11-.45.1-.703-.04-.251-.14-.412-.532-.576-.91-.165-.377-.37-1.364-.37-1.364Zm-1.81-1.81s-.205-.987-.37-1.365c-.164-.378-.325-.77-.577-.91-.251-.138-.444-.15-.702-.038-.29.141-.524.375-.666.664-.11.259-.099.451.04.703.14.253.533.412.91.577.377.164 1.364.369 1.364.369Zm0 1.81s-.988.203-1.365.37c-.379.164-.77.323-.91.575-.139.253-.15.444-.038.704.11.26.404.552.664.665.258.11.45.1.702-.04.252-.14.413-.532.577-.91.165-.377.37-1.364.37-1.364Zm1.81-1.81s.204-.987.369-1.365c.164-.378.325-.77.576-.91.252-.138.444-.15.703-.038.26.111.553.404.665.664.112.259.1.451-.04.703-.139.253-.532.412-.909.577-.377.164-1.364.369-1.364.369Z" opacity=".4"/><defs><radialGradient id="a" cx="0" cy="0" r="1" gradientTransform="matrix(0 22 -22 0 12 1)" gradientUnits="userSpaceOnUse"><stop stop-color="#FD8C01"/><stop offset="1" stop-color="#C35200"/></radialGradient></defs></svg>
